public/avatar/shoe/106.svg

<svg xmlns:xlink="http://www.w3.org/1999/xlink" height="38.3" width="36.05" xmlns="http://www.w3.org/2000/svg"><use height="28.8" transform="translate(7.5 4.05)" width="24.85" xlink:href="#a"/><defs><g id="a" fill-rule="evenodd"><path d="M.35-7.3 2.1-6.25l1.2.9q1.9 1.1 3.55.9v.1l.6-.25.35 2.55Q7.8-.9 7.4-.5l-.25 2.25v.55q.05.7.25 1.15l.3.3-.4.75q1.25 1.95 1.25 3.3-.05 1.05-.7 1.65l-.15.25q-.55.75-2.15 1.3-2.9 1.5-6.6 2.45l-3.5.7L-5.9 18l-1-3.55h-3l-1.2 2.75-1.2-2.95q-1.95-.3-2.4-.8v-.15l-.1.1-1 2.65-.35-2.8-.15-1.75q0-5.9 2.95-7.55l.05-1.7L-7.55.3l.2-6.35q0-.65.95-1.25.3-3.5 2.8-3.5l2.5.35Q.2-9.55.35-7.3M6.8-3.75Q5-3.55 2.85-4.8L-.4-6.95Q-.15-8.9-1.65-9.8l-1.45-.25h-.5q-2.25.1-2.2 3.3h-.05l-.2.2-.55.75.2 6.75-.25-.05-5.7 2-.05 1.35.15.15q-.75.3-1.35.8-2.05 1.55-2.05 5.65l.05.9.05.45v.8l1.2-1.4.2 1.3q.25.4 2.35.6l.65 1.65.05-.2V15l.4-.95.1-.15.1-.3.3.05 3.7-.1.4 1.1.25 1.1v-.35l.05.15v-.45l.1-.65-.05.7.35-1.7 4.1-.8q3.75-1.05 6.35-2.45l.05.05Q6.7 9.6 6.95 9.2v-.15l.2-.15q1.6-1.2-.75-4.55l.3-.6V3.7l-.05-.05q-.25-.5-.35-1.35 1-3 .5-6.05" fill="#424242" transform="translate(16.3 10.8)"/><path d="m.1 3.45-1.4.7L.05 3.4l.05.05m-7.7 3.1 1.3.1-.9.4-.4-.5m4.55.25 1.4-.5Q.25 7.65-.1 12.05l2.45-.65q.95-4.15-1.2-6.15l1.15-.4 1.55.7 1.2 4.65q-2.6 1.4-6.35 2.45l-4.1.8q.65-1.65 2.3-3.5.75-.85.75-1.65 0-.6-.3-1.1l-.3-.4-.05.05-.05-.05m10 2.25L6.5 6.5l-.55-1.7.45-.45q2.35 3.35.75 4.55l-.2.15M-10.5 13.6l1.65-2.8 1.4-1.65.1.55.85 3.85-3.7.1-.3-.05m.05-7.7v-.15l.1.1-.1.05m-3.9 5.7 1.9-2.35.05 1.55.6 2.7q-2.1-.2-2.35-.6l-.2-1.3" fill="#545454" transform="translate(16.3 10.8)"/><path d="M-3.1-10.05q1.8.35 2 3.55 1.75.8 3.3 2.3 0 2.9-1 7.1l.15.25-.25-.25-1 .55-.05-.05 1.1-.6-4.45-1.35-3.1-.5-.2-6.75.75-.9h.05v-.05q-.05-3.2 2.2-3.3h.5m-6.45 15.1v.65q1.1-.1 1.95.85l.4.5.9-.4 3.25.15.05.05q-2.2 1.2-2.7 7.6l-.1.65-.5-7.15q-.3-.75-.6-.3-.55.6-.45 2.05l-.1-.55-1.4 1.65-1.65 2.8q1.1-2.4 2.95-4.4l-.05-1.8q-4.05 1.6-3.5 7.55l-.05.2-.65-1.65-.6-2.7-.05-1.55-1.9 2.35-1.2 1.4v-.05l3.1-3.75.1-2.05q-2.95 2.65-3.2 5.75v-.7.4q-.1-2.4 1.35-4.95.75-1.35 1.5-2.15.05-.8-.45-.55l-.45.25q.6-.5 1.35-.8l-.15-.15.05-1.35 2.8 2.15M6.5 6.5l-.6-1.7h.05l.55 1.7m.2-2.75-.05-.1.05.05v.05M-1.55-6.5q-.1-3.1-2.05-3-1.95.15-1.8 3.15.1 3.1 2.05 3 1.95 0 1.8-3.15M-6.1 14.65l.25.75v.35l-.25-1.1m-9.45-2v-.05.05m5.1-6.75.1-.05-.1-.1v.15m.4.6q-.1-.8-.6-.45-2.75 2.4-.5 8.95-.75-2.55.1-5.75l1-2.75" fill="#ababab" transform="translate(16.3 10.8)"/><path d="m2.2-4.2.1.1q3.05 1.5 4.5.35.5 3.05-.5 6.05.1.85.35 1.35l.05.1-.3.6-.45.45H5.9l.6 1.7.45 2.55v.15q-.25.4-1.85 1.05l-.05-.05-1.2-4.65-1.55-.7-1.15.4q2.15 2 1.2 6.15l-2.45.65q.35-4.4-1.55-5.75l-1.4.5-3.25-.15-1.3-.1q-.85-.95-1.95-.85v-.65l6 .35 2.25-1.25 1.4-.7 1-.55.25.25-.15-.25q1-4.2 1-7.1m-5.75-4.6q1.5-.15 1.65 2.3.1 2.4-1.45 2.5-1.5 0-1.6-2.35-.15-2.45 1.4-2.45M-5.7 14.45q.5-6.4 2.7-7.6l.05-.05.3.4q.3.5.3 1.1 0 .8-.75 1.65-1.65 1.85-2.3 3.5l-.35 1.7.05-.7m-5.4.5Q-11.65 9-7.6 7.4l.05 1.8q-1.85 2-2.95 4.4l-.1.3-.1.15-.4.95v-.05m-4.45-2.05q.25-3.1 3.2-5.75l-.1 2.05-3.1 3.75v-.05" fill="#838386" transform="translate(16.3 10.8)"/><path d="M6.8-3.75Q5.35-2.6 2.3-4.1l-.1-.1Q.65-5.7-1.1-6.5q-.2-3.2-2-3.55l1.45.25q1.5.9 1.25 2.85L2.85-4.8Q5-3.55 6.8-3.75m-8.1 7.9L-3.55 5.4l-6-.35-2.8-2.15 5.7-2 .25.05 3.1.5L1.15 2.8l-1.1.6-1.35.75m-4.5-10.9v.05h-.05l-.75.9.55-.75.2-.2h.05m2.25-2.05q-1.55 0-1.4 2.45Q-4.85-4-3.35-4q1.55-.1 1.45-2.5-.15-2.45-1.65-2.3m2 2.3q.15 3.15-1.8 3.15-1.95.1-2.05-3-.15-3 1.8-3.15 1.95-.1 2.05 3m-5.8 16.2q-.1-1.45.45-2.05.3-.45.6.3l.5 7.15v.45l-.05-.15-.25-.75-.4-1.1-.85-3.85m-6.25-4.5.45-.25q.5-.25.45.55-.75.8-1.5 2.15-1.45 2.55-1.35 4.95v-.4l-.05-.45-.05-.9q0-4.1 2.05-5.65m3.55 1.3-1 2.75q-.85 3.2-.1 5.75-2.25-6.55.5-8.95.5-.35.6.45" fill="#ccc" transform="translate(16.3 10.8)"/></g></defs></svg>

<?xml version="1.0" encoding="UTF-8" standalone="no"?>
<svg xmlns:xlink="http://www.w3.org/1999/xlink" height="38.3px" width="36.05px" xmlns="http://www.w3.org/2000/svg">
  <g transform="matrix(1.0, 0.0, 0.0, 1.0, 23.8, 14.85)">
    <use height="28.8" transform="matrix(1.0, 0.0, 0.0, 1.0, -16.3, -10.8)" width="24.85" xlink:href="#shape0"/>
  </g>
  <defs>
    <g id="shape0" transform="matrix(1.0, 0.0, 0.0, 1.0, 16.3, 10.8)">
      <path d="M0.35 -7.3 L2.1 -6.25 3.3 -5.35 Q5.2 -4.25 6.85 -4.45 L6.85 -4.35 7.45 -4.6 7.8 -2.05 Q7.8 -0.9 7.4 -0.5 L7.15 1.75 7.15 2.3 Q7.2 3.0 7.4 3.45 L7.7 3.75 7.3 4.5 Q8.55 6.45 8.55 7.8 8.5 8.85 7.85 9.45 L7.7 9.7 Q7.15 10.45 5.55 11.0 2.65 12.5 -1.05 13.45 L-4.55 14.15 -5.9 18.0 -6.9 14.45 -9.9 14.45 -11.1 17.2 -12.3 14.25 Q-14.25 13.95 -14.7 13.45 L-14.7 13.3 -14.8 13.4 -15.8 16.05 -16.15 13.25 -16.3 11.5 Q-16.3 5.6 -13.35 3.95 L-13.3 2.25 -7.55 0.3 -7.35 -6.05 Q-7.35 -6.7 -6.4 -7.3 -6.1 -10.8 -3.6 -10.8 L-1.1 -10.45 Q0.2 -9.55 0.35 -7.3 M6.8 -3.75 Q5.0 -3.55 2.85 -4.8 L-0.4 -6.95 Q-0.15 -8.9 -1.65 -9.8 L-3.1 -10.05 -3.2 -10.05 -3.6 -10.05 Q-5.85 -9.95 -5.8 -6.75 L-5.85 -6.75 -6.05 -6.55 -6.6 -5.8 -6.4 0.95 -6.65 0.9 -12.35 2.9 -12.4 4.25 -12.25 4.4 Q-13.0 4.7 -13.6 5.2 -15.65 6.75 -15.65 10.85 L-15.6 11.75 -15.55 12.2 -15.55 12.9 -15.55 12.95 -15.55 13.0 -14.35 11.6 -14.15 12.9 Q-13.9 13.3 -11.8 13.5 L-11.15 15.15 -11.1 14.95 -11.1 15.0 -10.7 14.05 -10.6 13.9 -10.5 13.6 -10.2 13.65 -6.5 13.55 -6.1 14.65 -5.85 15.75 -5.85 15.4 -5.8 15.55 -5.8 15.1 -5.7 14.45 -5.75 15.15 -5.4 13.45 -1.3 12.65 Q2.45 11.6 5.05 10.2 L5.1 10.25 Q6.7 9.6 6.95 9.2 L6.95 9.15 6.95 9.05 7.15 8.9 Q8.75 7.7 6.4 4.35 L6.7 3.75 6.7 3.7 6.65 3.65 Q6.4 3.15 6.3 2.3 7.3 -0.7 6.8 -3.75" fill="#424242" fill-rule="evenodd" stroke="none"/>
      <path d="M0.1 3.45 L-1.3 4.15 0.05 3.4 0.1 3.45 M-7.6 6.55 L-6.3 6.65 -7.2 7.05 -7.6 6.55 M-3.05 6.8 L-1.65 6.3 Q0.25 7.65 -0.1 12.05 L2.35 11.4 Q3.3 7.25 1.15 5.25 L2.3 4.85 3.85 5.55 5.05 10.2 Q2.45 11.6 -1.3 12.65 L-5.4 13.45 Q-4.75 11.8 -3.1 9.95 -2.35 9.1 -2.35 8.3 -2.35 7.7 -2.65 7.2 L-2.95 6.8 -3.0 6.85 -3.05 6.8 M6.95 9.05 L6.5 6.5 5.95 4.8 6.4 4.35 Q8.75 7.7 7.15 8.9 L6.95 9.05 M-10.5 13.6 L-8.85 10.8 -7.45 9.15 -7.35 9.7 -6.5 13.55 -10.2 13.65 -10.5 13.6 M-10.45 5.9 L-10.45 5.75 -10.35 5.85 -10.45 5.9 M-14.35 11.6 L-12.45 9.25 -12.4 10.8 -11.8 13.5 Q-13.9 13.3 -14.15 12.9 L-14.35 11.6" fill="#545454" fill-rule="evenodd" stroke="none"/>
      <path d="M-3.1 -10.05 Q-1.3 -9.7 -1.1 -6.5 0.65 -5.7 2.2 -4.2 2.2 -1.3 1.2 2.9 L1.35 3.15 1.1 2.9 0.1 3.45 0.05 3.4 1.15 2.8 -3.3 1.45 -6.4 0.95 -6.6 -5.8 -5.85 -6.7 -5.8 -6.7 -5.8 -6.75 Q-5.85 -9.95 -3.6 -10.05 L-3.2 -10.05 -3.1 -10.05 M-9.55 5.05 L-9.55 5.7 Q-8.45 5.6 -7.6 6.55 L-7.2 7.05 -6.3 6.65 -3.05 6.8 -3.0 6.85 Q-5.2 8.05 -5.7 14.45 L-5.8 15.1 -6.3 7.95 Q-6.6 7.2 -6.9 7.65 -7.45 8.25 -7.35 9.7 L-7.45 9.15 -8.85 10.8 -10.5 13.6 Q-9.4 11.2 -7.55 9.2 L-7.6 7.4 Q-11.65 9.0 -11.1 14.95 L-11.15 15.15 -11.8 13.5 -12.4 10.8 -12.45 9.25 -14.35 11.6 -15.55 13.0 -15.55 12.95 -12.45 9.2 -12.35 7.15 Q-15.3 9.8 -15.55 12.9 L-15.55 12.2 -15.55 12.6 Q-15.65 10.2 -14.2 7.65 -13.45 6.3 -12.7 5.5 -12.65 4.7 -13.15 4.95 L-13.6 5.2 Q-13.0 4.7 -12.25 4.4 L-12.4 4.25 -12.35 2.9 -9.55 5.05 M6.5 6.5 L5.9 4.8 5.95 4.8 6.5 6.5 M6.7 3.75 L6.65 3.65 6.7 3.7 6.7 3.75 M-1.55 -6.5 Q-1.65 -9.6 -3.6 -9.5 -5.55 -9.35 -5.4 -6.35 -5.3 -3.25 -3.35 -3.35 -1.4 -3.35 -1.55 -6.5 M-6.1 14.65 L-5.85 15.4 -5.85 15.75 -6.1 14.65 M-15.55 12.65 L-15.55 12.6 -15.55 12.65 M-10.45 5.9 L-10.35 5.85 -10.45 5.75 -10.45 5.9 M-10.05 6.5 Q-10.15 5.7 -10.65 6.05 -13.4 8.45 -11.15 15.0 -11.9 12.45 -11.05 9.25 L-10.05 6.5" fill="#ababab" fill-rule="evenodd" stroke="none"/>
      <path d="M2.2 -4.2 L2.3 -4.1 Q5.35 -2.6 6.8 -3.75 7.3 -0.7 6.3 2.3 6.4 3.15 6.65 3.65 L6.7 3.75 6.4 4.35 5.95 4.8 5.9 4.8 6.5 6.5 6.95 9.05 6.95 9.15 6.95 9.2 Q6.7 9.6 5.1 10.25 L5.05 10.2 3.85 5.55 2.3 4.85 1.15 5.25 Q3.3 7.25 2.35 11.4 L-0.1 12.05 Q0.25 7.65 -1.65 6.3 L-3.05 6.8 -6.3 6.65 -7.6 6.55 Q-8.45 5.6 -9.55 5.7 L-9.55 5.05 -3.55 5.4 -1.3 4.15 0.1 3.45 1.1 2.9 1.35 3.15 1.2 2.9 Q2.2 -1.3 2.2 -4.2 M-3.55 -8.8 Q-2.05 -8.95 -1.9 -6.5 -1.8 -4.1 -3.35 -4.0 -4.85 -4.0 -4.95 -6.35 -5.1 -8.8 -3.55 -8.8 M-5.7 14.45 Q-5.2 8.05 -3.0 6.85 L-2.95 6.8 -2.65 7.2 Q-2.35 7.7 -2.35 8.3 -2.35 9.1 -3.1 9.95 -4.75 11.8 -5.4 13.45 L-5.75 15.15 -5.7 14.45 M-11.1 14.95 Q-11.65 9.0 -7.6 7.4 L-7.55 9.2 Q-9.4 11.2 -10.5 13.6 L-10.6 13.9 -10.7 14.05 -11.1 15.0 -11.1 14.95 M-15.55 12.9 Q-15.3 9.8 -12.35 7.15 L-12.45 9.2 -15.55 12.95 -15.55 12.9" fill="#838386" fill-rule="evenodd" stroke="none"/>
      <path d="M6.8 -3.75 Q5.35 -2.6 2.3 -4.1 L2.2 -4.2 Q0.65 -5.7 -1.1 -6.5 -1.3 -9.7 -3.1 -10.05 L-1.65 -9.8 Q-0.15 -8.9 -0.4 -6.95 L2.85 -4.8 Q5.0 -3.55 6.8 -3.75 M-1.3 4.15 L-3.55 5.4 -9.55 5.05 -12.35 2.9 -6.65 0.9 -6.4 0.95 -3.3 1.45 1.15 2.8 0.05 3.4 -1.3 4.15 M-5.8 -6.75 L-5.8 -6.7 -5.85 -6.7 -6.6 -5.8 -6.05 -6.55 -5.85 -6.75 -5.8 -6.75 M-3.55 -8.8 Q-5.1 -8.8 -4.95 -6.35 -4.85 -4.0 -3.35 -4.0 -1.8 -4.1 -1.9 -6.5 -2.05 -8.95 -3.55 -8.8 M-1.55 -6.5 Q-1.4 -3.35 -3.35 -3.35 -5.3 -3.25 -5.4 -6.35 -5.55 -9.35 -3.6 -9.5 -1.65 -9.6 -1.55 -6.5 M-7.35 9.7 Q-7.45 8.25 -6.9 7.65 -6.6 7.2 -6.3 7.95 L-5.8 15.1 -5.8 15.55 -5.85 15.4 -6.1 14.65 -6.5 13.55 -7.35 9.7 M-13.6 5.2 L-13.15 4.95 Q-12.65 4.7 -12.7 5.5 -13.45 6.3 -14.2 7.65 -15.65 10.2 -15.55 12.6 L-15.55 12.2 -15.6 11.75 -15.65 10.85 Q-15.65 6.75 -13.6 5.2 M-10.05 6.5 L-11.05 9.25 Q-11.9 12.45 -11.15 15.0 -13.4 8.45 -10.65 6.05 -10.15 5.7 -10.05 6.5" fill="#cccccc" fill-rule="evenodd" stroke="none"/>
    </g>
  </defs>
</svg>
